resources/svg/app-store-line.svg

<svg fill="currentColor" viewBox="0 0 24 24" xmlns="http://www.w3.org/2000/svg"><path d="M12 2C17.5228 2 22 6.47715 22 12C22 17.5228 17.5228 22 12 22C6.47715 22 2 17.5228 2 12C2 6.47715 6.47715 2 12 2ZM12 4C7.58172 4 4 7.58172 4 12C4 16.4183 7.58172 20 12 20C16.4183 20 20 16.4183 20 12C20 7.58172 16.4183 4 12 4ZM8.82258 15.3427L8.03226 16.7137C7.80645 17.1089 7.30242 17.2419 6.90726 17.0161C6.5121 16.7903 6.37903 16.2863 6.60484 15.8911L7.19355 14.875C7.85484 14.6694 8.39516 14.8266 8.82258 15.3427ZM13.2097 8.66129L15.6331 12.8548H17.7742C18.2298 12.8548 18.5968 13.2218 18.5968 13.6774C18.5968 14.1331 18.2298 14.5 17.7742 14.5H16.5847L17.3871 15.8911C17.6129 16.2863 17.4798 16.7863 17.0847 17.0161C16.6895 17.2419 16.1895 17.1089 15.9597 16.7137L12.9194 11.4476C12.2298 10.2581 12.7218 9.06452 13.2097 8.66129ZM13.4879 5.61694C13.8831 5.84274 14.0161 6.34677 13.7903 6.74194L10.2621 12.8508H12.8145C13.6411 12.8508 14.1048 13.8226 13.746 14.496H6.26613C5.81048 14.496 5.44355 14.129 5.44355 13.6734C5.44355 13.2177 5.81048 12.8508 6.26613 12.8508H8.3629L11.0484 8.19758L10.2097 6.74194C9.98387 6.34677 10.1169 5.84677 10.5121 5.61694C10.9073 5.39113 11.4073 5.52419 11.6371 5.91935L11.996 6.55242L12.3629 5.91935C12.5887 5.52419 13.0927 5.39113 13.4879 5.61694Z"/></svg>

<svg xmlns="http://www.w3.org/2000/svg" viewBox="0 0 24 24" fill="currentColor">
    <g>
        <path fill="none" d="M0 0h24v24H0z"/>
        <path fill-rule="nonzero" d="M12 2c5.523 0 10 4.477 10 10s-4.477 10-10 10S2 17.523 2 12 6.477 2 12 2zm0 2a8 8 0 1 0 0 16 8 8 0 0 0 0-16zM8.823 15.343l-.79 1.37a.823.823 0 1 1-1.428-.822l.589-1.016c.66-.206 1.201-.048 1.629.468zM13.21 8.66l2.423 4.194h2.141a.82.82 0 0 1 .823.822.82.82 0 0 1-.823.823h-1.19l.803 1.391a.824.824 0 0 1-1.427.823l-3.04-5.266c-.69-1.19-.198-2.383.29-2.787zm.278-3.044c.395.226.528.73.302 1.125l-3.528 6.109h2.553c.826 0 1.29.972.931 1.645h-7.48a.82.82 0 0 1-.822-.823.82.82 0 0 1 .822-.822h2.097l2.685-4.653-.838-1.456a.824.824 0 0 1 1.427-.823l.359.633.367-.633a.823.823 0 0 1 1.125-.302z"/>
    </g>
</svg>
